lib/gui/assets/image.svg

<?xml version="1.0" encoding="UTF-8"?>
<svg viewBox="0 0 21 23" version="1.1" xmlns="http://www.w3.org/2000/svg" xmlns:xlink="http://www.w3.org/1999/xlink">
    <!-- Generator: Sketch 42 (36781) - http://www.bohemiancoding.com/sketch -->
    <title>Combined Shape</title>
    <desc>Created with Sketch.</desc>
    <defs></defs>
    <g id="Page-2" stroke="none" stroke-width="1" fill="none" fill-rule="evenodd">
        <g id="select-image/-category-copy-12" transform="translate(-407.000000, -109.000000)" fill-rule="nonzero" fill="#FFFFFF">
            <g id="Group-7" transform="translate(407.000000, 109.000000)">
                <path d="M21,7.51607355 L21,15.4875215 C21,16.7481894 20.3246037,17.9129891 19.2246726,18.5409264 L12.2777395,22.529047 C11.1778084,23.1569843 9.82701583,23.1569843 8.72708475,22.529047 L1.78015162,18.5409264 C0.680220536,17.9129891 0,16.7481894 0,15.4875215 L0,7.51607355 C0,6.2554056 0.680220536,5.09060595 1.78015162,4.46266868 L8.72708475,0.474548012 C9.82701583,-0.158182671 11.1778084,-0.158182671 12.2777395,0.474548012 L19.2246726,4.46266868 C20.3246037,5.09060595 21,6.2554056 21,7.51607355 Z M9.26574803,15.3966378 C9.26574803,16.0895512 9.80708661,16.6308898 10.5,16.6308898 C11.1712598,16.6308898 11.734252,16.0895512 11.734252,15.3966378 L11.734252,12.3867953 L14.8090551,12.3867953 C15.4586614,12.3867953 16,11.8671102 16,11.1958504 C16,10.5462441 15.4586614,10.0049055 14.8090551,10.0049055 L11.734252,10.0049055 L11.734252,6.99506299 C11.734252,6.30214961 11.1712598,5.76081102 10.5,5.76081102 C9.80708661,5.76081102 9.26574803,6.30214961 9.26574803,6.99506299 L9.26574803,10.0049055 L6.19094488,10.0049055 C5.54133858,10.0049055 5,10.5462441 5,11.1958504 C5,11.8671102 5.54133858,12.3867953 6.19094488,12.3867953 L9.26574803,12.3867953 L9.26574803,15.3966378 Z" id="Combined-Shape"></path>
            </g>
        </g>
    </g>
</svg>

<svg viewBox="0 0 21 23" xmlns="http://www.w3.org/2000/svg"><path d="M21 7.516v7.972c0 1.26-.675 2.425-1.775 3.053l-6.947 3.988c-1.1.628-2.451.628-3.55 0L1.78 18.541A3.52 3.52 0 010 15.488V7.516c0-1.26.68-2.425 1.78-3.053L8.727.475a3.558 3.558 0 013.55 0l6.948 3.988A3.515 3.515 0 0121 7.516zm-11.734 7.88a1.22 1.22 0 001.234 1.235c.671 0 1.234-.541 1.234-1.234v-3.01h3.075c.65 0 1.191-.52 1.191-1.191 0-.65-.541-1.191-1.19-1.191h-3.076v-3.01c0-.693-.563-1.234-1.234-1.234a1.22 1.22 0 00-1.234 1.234v3.01H6.19c-.65 0-1.191.541-1.191 1.19 0 .672.541 1.192 1.19 1.192h3.076v3.01z" fill-rule="nonzero" fill="#FFF"/></svg>
